X:1
T:Title
L:1/8
Q:1/4=120
M:6/8
K:Ab
V:1 treble nm="Grand Piano"
V:1
 c2 c c2 d | c3 A2 G | F3 c3 | B6 | B2 B B2 c | B3 G2 F | E3 B3 | A6 | A2 A A2 c | B2 A G3 | %10
w: ????~???? * * *||||||||||
 G2 G G2 B | A2 G F3 | F2 F F2 c | B6 | G2 G G2 d | c6 | c2 c c2 d | c2 B A3 | B2 B B2 c | %19
w: |||||||||
 B2 A G3 | G2 G G2 c | B2 A G2 B | A3 G3 | F6 |] %24
w: |||||

